;FLAVOR:Marlin
;TIME:15344
;Filament used: 12.4519m
;Layer height: 0.28
;MINX:59.929
;MINY:72
;MINZ:0.28
;MAXX:172.948
;MAXY:163
;MAXZ:40.04
;Generated with Cura_SteamEngine 4.11.0
M140 S50
M105
M190 S50
M104 S200
M105
M109 S200
M82 ;absolute extrusion mode
; Ender 3 Custom Start G-code
G92 E0 ; Reset Extruder
G28 ; Home all axes
G1 Z2.0 F3000 ; Move Z Axis up little to prevent scratching of Heat Bed
G1 X0.1 Y20 Z0.3 F5000.0 ; Move to start position
G1 X0.1 Y200.0 Z0.3 F1500.0 E15 ; Draw the first line
G1 X0.4 Y200.0 Z0.3 F5000.0 ; Move to side a little
G1 X0.4 Y20 Z0.3 F1500.0 E30 ; Draw the second line
G92 E0 ; Reset Extruder
G1 Z2.0 F3000 ; Move Z Axis up little to prevent scratching of Heat Bed
G1 X5 Y20 Z0.3 F5000.0 ; Move over to prevent blob squish
G92 E0
G92 E0
G1 F2700 E-5
;LAYER_COUNT:143
;LAYER:0
M107
G0 F6000 X72.298 Y75.111 Z0.28
;TYPE:SKIRT
G1 F2700 E0
G1 F1200 X72.998 Y74.487 E0.04367
G1 X73.75 Y73.926 E0.08735
G1 X74.546 Y73.431 E0.131
G1 X75.382 Y73.005 E0.17469
G1 X76.251 Y72.652 E0.21837
G1 X77.146 Y72.374 E0.262
G1 X78.063 Y72.174 E0.30571
G1 X78.992 Y72.052 E0.34934
G1 X79.582 Y72.016 E0.37686
G1 X79.967 Y72.006 E0.39479
G1 X80.51 Y72 E0.42008
G1 X111.241 Y72 E1.85104
G1 X112.13 Y72.012 E1.89244
G1 X112.733 Y72.038 E1.92055
G1 X113.645 Y72.102 E1.96312
G1 X116.18 Y72.246 E2.08135
G1 X118.73 Y72.317 E2.20013
G1 X121.255 Y72.317 E2.31771
G1 X123.75 Y72.245 E2.43393
G1 X126.271 Y72.103 E2.55151
G1 X126.869 Y72.056 E2.57944
G1 X127.298 Y72.029 E2.59946
G1 X127.649 Y72.013 E2.61582
G1 X127.969 Y72.004 E2.63072
G1 X128.278 Y72 E2.64511
G1 X161.399 Y72.001 E4.18737
G1 X162.097 Y72.011 E4.21987
G1 X163.033 Y72.065 E4.26353
G1 X163.961 Y72.197 E4.30717
G1 X164.875 Y72.409 E4.35086
G1 X165.767 Y72.698 E4.39452
G1 X166.632 Y73.061 E4.4382
G1 X167.462 Y73.497 E4.48186
G1 X168.253 Y74.002 E4.52556
G1 X168.997 Y74.573 E4.56923
G1 X169.69 Y75.205 E4.6129
G1 X170.327 Y75.893 E4.65656
G1 X170.902 Y76.634 E4.70024
G1 X171.413 Y77.42 E4.74389
G1 X171.855 Y78.248 E4.78759
G1 X172.224 Y79.11 E4.83126
G1 X172.519 Y80 E4.87492
G1 X172.737 Y80.912 E4.91858
G1 X172.877 Y81.84 E4.96228
G1 X172.934 Y82.688 E5.00185
G1 X172.943 Y82.995 E5.01616
G1 X172.948 Y83.317 E5.03115
G1 X172.947 Y151.4 E8.20138
G1 X172.938 Y152.127 E8.23524
G1 X172.887 Y153.064 E8.27893
G1 X172.755 Y153.992 E8.32258
G1 X172.546 Y154.906 E8.36624
G1 X172.259 Y155.799 E8.40991
G1 X171.897 Y156.665 E8.45362
G1 X171.463 Y157.496 E8.49727
G1 X170.959 Y158.287 E8.54095
G1 X170.39 Y159.032 E8.5846
G1 X169.759 Y159.727 E8.62831
G1 X169.072 Y160.365 E8.67196
G1 X168.333 Y160.942 E8.71562
G1 X167.547 Y161.454 E8.7593
G1 X166.721 Y161.897 E8.80295
G1 X165.859 Y162.269 E8.84666
G1 X164.97 Y162.565 E8.89029
G1 X164.058 Y162.785 E8.93398
G1 X163.131 Y162.926 E8.97764
G1 X162.247 Y162.987 E9.0189
G1 X161.926 Y162.996 E9.03385
G1 X161.618 Y163 E9.04819
G1 X128.497 Y162.999 E10.59045
G1 X127.802 Y162.989 E10.62281
G1 X127.183 Y162.963 E10.65166
G1 X126.294 Y162.9 E10.69316
G1 X123.76 Y162.757 E10.81134
G1 X121.265 Y162.685 E10.92757
G1 X118.741 Y162.685 E11.0451
G1 X116.217 Y162.756 E11.16267
G1 X113.672 Y162.899 E11.28136
G1 X113.393 Y162.92 E11.29439
G1 X112.672 Y162.967 E11.32804
G1 X112.297 Y162.985 E11.34552
G1 X111.929 Y162.994 E11.36266
G1 X111.386 Y163 E11.38794
G1 X79.497 Y162.999 E12.87283
G1 X78.799 Y162.989 E12.90533
G1 X77.863 Y162.935 E12.94899
G1 X76.935 Y162.803 E12.99264
G1 X76.021 Y162.591 E13.03633
G1 X75.129 Y162.302 E13.07999
G1 X74.264 Y161.939 E13.12367
G1 X73.434 Y161.503 E13.16732
G1 X72.643 Y160.998 E13.21102
G1 X71.899 Y160.427 E13.25469
G1 X71.206 Y159.795 E13.29837
G1 X70.569 Y159.107 E13.34203
G1 X69.994 Y158.366 E13.3857
G1 X69.483 Y157.58 E13.42935
G1 X69.041 Y156.752 E13.47306
G1 X68.672 Y155.89 E13.51672
G1 X68.377 Y155 E13.56038
G1 X68.159 Y154.088 E13.60404
G1 X68.019 Y153.16 E13.64774
G1 X67.962 Y152.309 E13.68746
G1 X67.936 Y151.4 E13.7298
G1 X67.819 Y148.717 E13.85485
G1 X67.64 Y146.219 E13.97147
G1 X67.386 Y143.692 E14.08973
G1 X67.067 Y141.219 E14.20584
G1 X66.674 Y138.728 E14.32326
G1 X66.213 Y136.267 E14.43985
G1 X65.686 Y133.828 E14.55604
G1 X65.074 Y131.341 E14.6753
G1 X64.409 Y128.937 E14.79144
G1 X63.662 Y126.503 E14.91
G1 X62.87 Y124.162 E15.02508
G1 X61.964 Y121.716 E15.14653
G1 X61.386 Y120.266 E15.21922
G1 X61.199 Y119.763 E15.24421
G1 X60.869 Y118.801 E15.29156
G1 X60.674 Y118.205 E15.32076
G1 X60.411 Y117.359 E15.36202
G1 X60.172 Y116.452 E15.40569
G1 X60.012 Y115.528 E15.44936
G1 X59.931 Y114.593 E15.49306
G1 X59.929 Y113.656 E15.53669
G1 X60.008 Y112.721 E15.58038
G1 X60.166 Y111.797 E15.62403
G1 X60.402 Y110.89 E15.66767
G1 X60.721 Y109.851 E15.71828
G1 X60.902 Y109.298 E15.74537
G1 X61.142 Y108.595 E15.77996
G1 X61.357 Y108.017 E15.80868
G1 X61.802 Y106.923 E15.86367
G1 X62.032 Y106.377 E15.89126
G1 X62.948 Y104.027 E16.00871
G1 X63.791 Y101.671 E16.12522
G1 X64.571 Y99.273 E16.24264
G1 X65.281 Y96.864 E16.35959
G1 X65.932 Y94.399 E16.4783
G1 X66.51 Y91.936 E16.59611
G1 X67.003 Y89.517 E16.71106
G1 X67.442 Y87.011 E16.82953
G1 X67.805 Y84.531 E16.94624
G1 X67.868 Y84.002 E16.97104
G1 X68.048 Y82.602 E17.03677
G1 X68.207 Y81.678 E17.08043
G1 X68.444 Y80.771 E17.12408
G1 X68.758 Y79.887 E17.16776
G1 X69.146 Y79.033 E17.21144
G1 X69.605 Y78.215 E17.25511
G1 X70.132 Y77.439 E17.29879
G1 X70.897 Y76.52 E17.35447
G1 X71.04 Y76.366 E17.36426
G1 X71.281 Y76.115 E17.38046
G1 X71.647 Y75.745 E17.40469
G1 X71.812 Y75.582 E17.41549
G1 X72.298 Y75.111 E17.44701
G0 F6000 X72.576 Y75.398
G1 F1200 X73.264 Y74.787 E17.48985
G1 X74.003 Y74.237 E17.53275
G1 X74.787 Y73.754 E17.57563
G1 X75.609 Y73.341 E17.61846
G1 X76.465 Y73 E17.66137
G1 X77.347 Y72.735 E17.70425
G1 X78.248 Y72.548 E17.7471
G1 X79.595 Y72.416 E17.81012
G1 X79.971 Y72.406 E17.82764
G1 X80.51 Y72.4 E17.85274
G1 X111.241 Y72.4 E19.2837
G1 X112.124 Y72.412 E19.32482
G1 X112.705 Y72.437 E19.3519
G1 X113.592 Y72.499 E19.3933
G1 X116.182 Y72.646 E19.5141
G1 X118.719 Y72.717 E19.63228
G1 X121.231 Y72.717 E19.74925
G1 X123.783 Y72.644 E19.86813
G1 X126.326 Y72.5 E19.98673
G1 X127.089 Y72.442 E20.02236
G1 X127.322 Y72.428 E20.03323
G1 X127.66 Y72.413 E20.04898
G1 X127.98 Y72.404 E20.06389
G1 X128.278 Y72.4 E20.07777
G1 X161.393 Y72.401 E21.61974
G1 X162.091 Y72.411 E21.65225
G1 X163.01 Y72.464 E21.69511
G1 X163.921 Y72.597 E21.73798
G1 X164.817 Y72.808 E21.78084
G1 X165.691 Y73.096 E21.82369
G1 X166.538 Y73.459 E21.8666
G1 X167.349 Y73.894 E21.90945
G1 X168.119 Y74.398 E21.95231
G1 X168.843 Y74.967 E21.99518
G1 X169.515 Y75.597 E22.03807
G1 X170.13 Y76.282 E22.08094
G1 X170.683 Y77.018 E22.12381
G1 X171.17 Y77.799 E22.16666
G1 X171.587 Y78.62 E22.20954
G1 X171.932 Y79.474 E22.25243
G1 X172.201 Y80.354 E22.29528
G1 X172.393 Y81.255 E22.33818
G1 X172.506 Y82.168 E22.38101
G1 X172.534 Y82.699 E22.40577
G1 X172.543 Y83.006 E22.42007
G1 X172.548 Y83.317 E22.43456
G1 X172.547 Y151.395 E25.60455
G1 X172.538 Y152.122 E25.63841
G1 X172.487 Y153.041 E25.68127
G1 X172.356 Y153.953 E25.72417
G1 X172.146 Y154.849 E25.76702
G1 X171.86 Y155.724 E25.80989
G1 X171.499 Y156.571 E25.85276
G1 X171.065 Y157.383 E25.89563
G1 X170.563 Y158.155 E25.93851
G1 X169.995 Y158.88 E25.9814
G1 X169.367 Y159.553 E26.02426
G1 X168.683 Y160.169 E26.06712
G1 X167.948 Y160.723 E26.10998
G1 X167.168 Y161.212 E26.15285
G1 X166.348 Y161.631 E26.19572
G1 X165.495 Y161.977 E26.23859
G1 X164.615 Y162.248 E26.28146
G1 X163.715 Y162.441 E26.32432
G1 X162.801 Y162.556 E26.36722
G1 X162.236 Y162.587 E26.39357
G1 X161.915 Y162.596 E26.40852
G1 X161.618 Y162.6 E26.42235
G1 X128.502 Y162.599 E27.96437
G1 X127.807 Y162.589 E27.99674
G1 X127.211 Y162.564 E28.02451
G1 X126.346 Y162.503 E28.06489
G1 X123.793 Y162.358 E28.18396
G1 X121.241 Y162.285 E28.30284
G1 X118.73 Y162.285 E28.41976
G1 X116.182 Y162.356 E28.53845
G1 X113.66 Y162.498 E28.65608
G1 X113.367 Y162.521 E28.66976
G1 X112.646 Y162.568 E28.70341
G1 X112.285 Y162.585 E28.72023
G1 X111.925 Y162.594 E28.737
G1 X111.386 Y162.6 E28.7621
G1 X79.503 Y162.599 E30.24671
G1 X78.805 Y162.589 E30.27921
G1 X77.886 Y162.536 E30.32208
G1 X76.975 Y162.403 E30.36495
G1 X76.079 Y162.192 E30.40781
G1 X75.205 Y161.904 E30.45066
G1 X74.358 Y161.541 E30.49357
G1 X73.547 Y161.106 E30.53642
G1 X72.777 Y160.602 E30.57927
G1 X72.053 Y160.033 E30.62215
G1 X71.381 Y159.403 E30.66504
G1 X70.766 Y158.718 E30.70791
G1 X70.213 Y157.982 E30.75077
G1 X69.726 Y157.201 E30.79363
G1 X69.309 Y156.38 E30.83651
G1 X68.964 Y155.526 E30.8794
G1 X68.695 Y154.646 E30.92225
G1 X68.503 Y153.745 E30.96514
G1 X68.39 Y152.832 E31.00798
G1 X68.361 Y152.298 E31.03288
G1 X68.331 Y151.264 E31.08105
G1 X68.22 Y148.705 E31.20032
G1 X68.039 Y146.186 E31.31792
G1 X67.786 Y143.672 E31.43557
G1 X67.46 Y141.142 E31.55435
G1 X67.069 Y138.664 E31.67117
G1 X66.603 Y136.173 E31.78917
G1 X66.074 Y133.728 E31.90565
G1 X65.465 Y131.251 E32.02443
G1 X64.789 Y128.809 E32.14241
G1 X64.051 Y126.404 E32.25955
G1 X63.237 Y124 E32.37774
G1 X62.358 Y121.627 E32.49557
G1 X61.757 Y120.118 E32.5712
G1 X61.578 Y119.633 E32.59528
G1 X61.195 Y118.514 E32.65035
G1 X61.006 Y117.93 E32.67893
G1 X60.793 Y117.241 E32.71251
G1 X60.559 Y116.35 E32.75541
G1 X60.404 Y115.443 E32.79825
G1 X60.328 Y114.525 E32.84115
G1 X60.332 Y113.605 E32.88399
G1 X60.416 Y112.688 E32.92686
G1 X60.579 Y111.782 E32.96973
G1 X60.784 Y111.007 E33.00706
G1 X61.05 Y110.138 E33.04938
G1 X61.28 Y109.427 E33.08417
G1 X61.52 Y108.724 E33.11876
G1 X61.728 Y108.168 E33.1464
G1 X62.171 Y107.079 E33.20115
G1 X62.403 Y106.53 E33.2289
G1 X63.322 Y104.171 E33.34679
G1 X64.161 Y101.824 E33.46284
G1 X64.959 Y99.372 E33.58291
G1 X65.666 Y96.974 E33.69933
G1 X66.314 Y94.52 E33.81751
G1 X66.905 Y92.002 E33.93795
G1 X67.396 Y89.595 E34.05234
G1 X67.832 Y87.101 E34.17023
G1 X68.204 Y84.559 E34.28985
G1 X68.265 Y84.053 E34.31359
G1 X68.445 Y82.653 E34.37931
G1 X68.601 Y81.746 E34.42217
G1 X68.837 Y80.856 E34.46504
G1 X69.148 Y79.99 E34.50789
G1 X69.533 Y79.153 E34.55079
G1 X69.99 Y78.354 E34.59365
G1 X70.514 Y77.597 E34.63652
G1 X71.19 Y76.792 E34.68547
G1 X71.333 Y76.638 E34.69525
G1 X71.565 Y76.397 E34.71083
G1 X72.09 Y75.869 E34.7455
G1 X72.576 Y75.398 E34.77701
G0 F6000 X72.854 Y75.685
G1 F1200 X73.53 Y75.086 E34.81907
G1 X74.256 Y74.549 E34.86112
G1 X75.027 Y74.078 E34.90319
G1 X75.836 Y73.678 E34.94521
G1 X76.678 Y73.35 E34.98729
G1 X77.545 Y73.098 E35.02933
G1 X78.431 Y72.924 E35.07137
G1 X79.609 Y72.816 E35.12646
G1 X79.976 Y72.806 E35.14355
G1 X80.51 Y72.8 E35.16842
G1 X111.241 Y72.8 E36.59938
G1 X112.118 Y72.812 E36.64022
G1 X112.677 Y72.836 E36.66628
G1 X113.543 Y72.897 E36.7067
G1 X116.182 Y73.046 E36.82978
G1 X118.708 Y73.117 E36.94745
G1 X121.243 Y73.117 E37.06549
G1 X123.782 Y73.044 E37.18376
G1 X126.378 Y72.897 E37.30484
G1 X127.113 Y72.841 E37.33916
G1 X127.346 Y72.827 E37.35003
G1 X127.671 Y72.813 E37.36518
G1 X127.991 Y72.804 E37.38008
G1 X128.278 Y72.8 E37.39345
G1 X161.387 Y72.801 E38.93514
G1 X162.085 Y72.811 E38.96765
G1 X162.987 Y72.864 E39.00972
G1 X163.88 Y72.996 E39.05176
G1 X164.758 Y73.207 E39.0938
G1 X165.614 Y73.495 E39.13586
G1 X166.441 Y73.857 E39.17789
G1 X167.233 Y74.292 E39.21997
G1 X167.984 Y74.794 E39.26203
G1 X168.687 Y75.361 E39.30409
G1 X169.337 Y75.988 E39.34614
G1 X169.929 Y76.67 E39.38819
G1 X170.459 Y77.401 E39.43024
G1 X170.921 Y78.177 E39.47229
G1 X171.314 Y78.99 E39.51434
G1 X171.632 Y79.835 E39.55638
G1 X171.875 Y80.705 E39.59844
G1 X172.04 Y81.593 E39.64049
G1 X172.135 Y82.711 E39.69274
G1 X172.144 Y83.018 E39.70704
G1 X172.148 Y83.317 E39.72097
G1 X172.147 Y151.39 E42.89073
G1 X172.138 Y152.117 E42.92459
G1 X172.087 Y153.019 E42.96665
G1 X171.956 Y153.913 E43.00873
G1 X171.747 Y154.791 E43.05075
G1 X171.461 Y155.648 E43.09282
G1 X171.1 Y156.476 E43.13488
G1 X170.668 Y157.268 E43.17689
G1 X170.167 Y158.02 E43.21897
G1 X169.601 Y158.724 E43.26103
G1 X168.976 Y159.375 E43.30305
G1 X168.295 Y159.969 E43.34513
G1 X167.564 Y160.5 E43.3872
G1 X166.79 Y160.964 E43.42922
G1 X165.977 Y161.358 E43.47129
G1 X165.133 Y161.678 E43.51332
G1 X164.263 Y161.923 E43.5554
G1 X163.376 Y162.089 E43.59742
G1 X162.225 Y162.187 E43.65121
G1 X161.904 Y162.196 E43.66617
G1 X161.618 Y162.2 E43.67948
G1 X128.508 Y162.199 E45.22122
G1 X127.813 Y162.189 E45.25359
G1 X127.24 Y162.165 E45.28029
G1 X126.4 Y162.105 E45.31951
G1 X123.792 Y161.958 E45.44114
G1 X121.253 Y161.885 E45.55942
G1 X118.719 Y161.885 E45.67741
G1 X116.185 Y161.956 E45.79545
G1 X113.605 Y162.101 E45.91577
G1 X113.341 Y162.121 E45.9281
G1 X112.62 Y162.168 E45.96175
G1 X112.273 Y162.185 E45.97792
G1 X111.92 Y162.194 E45.99437
G1 X111.386 Y162.2 E46.01923
G1 X79.509 Y162.199 E47.50356
G1 X78.811 Y162.189 E47.53606
G1 X77.909 Y162.136 E47.57814
G1 X77.016 Y162.004 E47.62017
G1 X76.138 Y161.793 E47.66222
G1 X75.282 Y161.505 E47.70427
G1 X74.455 Y161.143 E47.74631
G1 X73.663 Y160.708 E47.78839
G1 X72.912 Y160.206 E47.83045
G1 X72.209 Y159.639 E47.8725
G1 X71.559 Y159.012 E47.91456
G1 X70.967 Y158.33 E47.95661
G1 X70.437 Y157.599 E47.99865
G1 X69.975 Y156.823 E48.0407
G1 X69.582 Y156.01 E48.08275
G1 X69.264 Y155.165 E48.12479
G1 X69.021 Y154.295 E48.16685
G1 X68.856 Y153.407 E48.20891
G1 X68.761 Y152.286 E48.2613
G1 X68.73 Y151.218 E48.31105
G1 X68.62 Y148.698 E48.4285
G1 X68.438 Y146.151 E48.5474
G1 X68.183 Y143.617 E48.66599
G1 X67.857 Y141.095 E48.7844
G1 X67.463 Y138.6 E48.90202
G1 X66.995 Y136.094 E49.02073
G1 X66.465 Y133.645 E49.1374
G1 X65.852 Y131.154 E49.25686
G1 X65.173 Y128.699 E49.37546
G1 X64.426 Y126.264 E49.49406
G1 X63.615 Y123.87 E49.61176
G1 X62.726 Y121.467 E49.73107
G1 X62.129 Y119.97 E49.80611
G1 X61.956 Y119.504 E49.82926
G1 X61.575 Y118.39 E49.88408
G1 X61.388 Y117.812 E49.91237
G1 X61.175 Y117.123 E49.94595
G1 X60.947 Y116.249 E49.98801
G1 X60.797 Y115.358 E50.03008
G1 X60.726 Y114.458 E50.07212
G1 X60.735 Y113.555 E50.11417
G1 X60.824 Y112.656 E50.15623
G1 X60.992 Y111.769 E50.19827
G1 X61.167 Y111.125 E50.22934
G1 X61.482 Y110.098 E50.27936
G1 X61.659 Y109.557 E50.30587
G1 X61.899 Y108.854 E50.34046
G1 X62.099 Y108.318 E50.3671
G1 X62.539 Y107.234 E50.42157
G1 X62.772 Y106.682 E50.44947
G1 X63.699 Y104.303 E50.56836
G1 X64.553 Y101.914 E50.6865
G1 X65.327 Y99.537 E50.8029
G1 X66.062 Y97.043 E50.92397
G1 X66.702 Y94.617 E51.0408
G1 X67.293 Y92.101 E51.16114
G1 X67.788 Y89.672 E51.27657
G1 X68.229 Y87.157 E51.39547
G1 X68.598 Y84.629 E51.51443
G1 X68.661 Y84.104 E51.53905
G1 X68.841 Y82.704 E51.60478
G1 X68.996 Y81.815 E51.6468
G1 X69.229 Y80.942 E51.68887
G1 X69.538 Y80.093 E51.73094
G1 X69.921 Y79.275 E51.773
G1 X70.375 Y78.495 E51.81502
G1 X70.896 Y77.757 E51.85709
G1 X71.484 Y77.064 E51.89941
G1 X71.627 Y76.91 E51.90919
G1 X71.849 Y76.678 E51.92415
G1 X72.368 Y76.156 E51.95842
G1 X72.854 Y75.685 E51.98994
G1 F2700 E46.98994
G0 F6000 X74.192 Y113.923
G1 F2700 E51.98994
G1 F1200 X74.304 Y113.923 E51.99515
G1 X74.4 Y113.993 E52.00068
G1 X74.427 Y114.076 E52.00475
G1 X74.165 Y114.26 E52.01966
G1 X74.096 Y114.209 E52.02365
G1 X74.061 Y114.101 E52.02894
G1 X74.096 Y113.993 E52.03422
G1 X74.192 Y113.923 E52.03976
G0 F6000 X74.062 Y113.523
G1 F1200 X74.434 Y113.523 E52.05708
G1 X74.74 Y113.745 E52.07468
G1 X74.856 Y114.101 E52.09212
G1 X74.785 Y114.319 E52.10279
G1 X74.428 Y114.553 E52.12267
G1 X74.256 Y114.715 E52.13367
G1 X74.081 Y114.693 E52.14188
G1 X73.756 Y114.457 E52.16059
G1 X73.64 Y114.101 E52.17802
G1 X73.756 Y113.745 E52.19546
G1 X74.062 Y113.523 E52.21306
G0 F6000 X73.931 Y113.123
G1 F1200 X74.565 Y113.123 E52.24258
G1 X75.081 Y113.498 E52.27228
G1 X75.277 Y114.1 E52.30176
G1 X75.111 Y114.61 E52.32674
G1 X74.969 Y114.672 E52.33395
G1 X74.624 Y114.909 E52.35344
G1 X74.404 Y115.132 E52.36803
G1 X73.97 Y115.079 E52.38839
G1 X73.931 Y115.079 E52.3902
G1 X73.415 Y114.704 E52.4199
G1 X73.219 Y114.101 E52.44943
G1 X73.415 Y113.498 E52.47895
G1 X73.931 Y113.123 E52.50866
G0 F6000 X73.802 Y112.723
G1 F1200 X74.694 Y112.723 E52.55019
G1 X75.421 Y113.251 E52.59203
G1 X75.697 Y114.101 E52.63364
G1 X75.435 Y114.903 E52.67293
G1 X75.132 Y115.039 E52.68839
G1 X74.827 Y115.264 E52.70604
G1 X74.575 Y115.547 E52.72369
G1 X74.531 Y115.569 E52.72598
